usr/share/icons/elementaryXubuntu/devices/24/audio-input-microphone.svg

<?xml version="1.0" encoding="UTF-8" standalone="no"?>
<!-- Created with Inkscape (http://www.inkscape.org/) -->

<svg
   xmlns:svg="http://www.w3.org/2000/svg"
   xmlns="http://www.w3.org/2000/svg"
   xmlns:xlink="http://www.w3.org/1999/xlink"
   version="1.0"
   width="24"
   height="24"
   id="svg2">
  <defs
     id="defs4">
    <linearGradient
       id="linearGradient3622">
      <stop
         id="stop3624"
         style="stop-color:#3c3c3c;stop-opacity:1"
         offset="0" />
      <stop
         id="stop3626"
         style="stop-color:#1e1e1e;stop-opacity:1"
         offset="1" />
    </linearGradient>
    <linearGradient
       id="linearGradient3324">
      <stop
         id="stop3326"
         style="stop-color:#ffffff;stop-opacity:1"
         offset="0" />
      <stop
         id="stop3328"
         style="stop-color:#ffffff;stop-opacity:0"
         offset="1" />
    </linearGradient>
    <linearGradient
       x1="17.676191"
       y1="28.647619"
       x2="15.542857"
       y2="26.971428"
       id="linearGradient4429"
       xlink:href="#linearGradient3324"
       gradientUnits="userSpaceOnUse"
       gradientTransform="matrix(0.6435676,0,0,0.6283907,-4.4762576,-2.0994837)" />
    <linearGradient
       id="linearGradient3155">
      <stop
         id="stop3157"
         style="stop-color:#ffffff;stop-opacity:1"
         offset="0" />
      <stop
         id="stop3159"
         style="stop-color:#9b9b9b;stop-opacity:1"
         offset="1" />
    </linearGradient>
    <radialGradient
       cx="37.97171"
       cy="11.217601"
       r="10.024096"
       fx="37.97171"
       fy="11.217601"
       id="radialGradient4432"
       xlink:href="#linearGradient3155"
       gradientUnits="userSpaceOnUse"
       gradientTransform="matrix(1.1057692,0,0,1.1057692,-4.108434,-1.2233551)" />
    <linearGradient
       id="linearGradient3685">
      <stop
         id="stop3687"
         style="stop-color:#ffffff;stop-opacity:0"
         offset="0" />
      <stop
         id="stop3689"
         style="stop-color:#000000;stop-opacity:0.49803922"
         offset="0.77083331" />
      <stop
         id="stop3691"
         style="stop-color:#000000;stop-opacity:1"
         offset="1" />
    </linearGradient>
    <radialGradient
       cx="31.00248"
       cy="20.938292"
       r="0.91428572"
       fx="31.00248"
       fy="20.938292"
       id="radialGradient4596"
       xlink:href="#linearGradient3685"
       gradientUnits="userSpaceOnUse"
       gradientTransform="matrix(1.705571,0,0,1.705571,-21.787591,-14.599733)" />
    <linearGradient
       x1="32.302921"
       y1="18.646013"
       x2="34.589996"
       y2="16.08078"
       id="linearGradient4609"
       xlink:href="#linearGradient3165"
       gradientUnits="userSpaceOnUse"
       gradientTransform="matrix(0.5866613,0.01064934,-0.01056719,0.5728263,-1.5973672,-4.8298683)" />
    <linearGradient
       x1="34.204147"
       y1="17.333593"
       x2="39.000122"
       y2="23.11928"
       id="linearGradient4606"
       xlink:href="#linearGradient3179"
       gradientUnits="userSpaceOnUse"
       gradientTransform="matrix(0.5866613,0.01064934,-0.01056719,0.5728263,-1.5973672,-4.8298683)"
       spreadMethod="reflect" />
    <linearGradient
       id="linearGradient3449">
      <stop
         id="stop3451"
         style="stop-color:#ffffff;stop-opacity:1"
         offset="0" />
      <stop
         id="stop3453"
         style="stop-color:#9b9b9b;stop-opacity:0"
         offset="1" />
    </linearGradient>
    <radialGradient
       cx="37.97171"
       cy="11.217601"
       r="10.024096"
       fx="37.97171"
       fy="11.217601"
       id="radialGradient4602"
       xlink:href="#linearGradient3449"
       gradientUnits="userSpaceOnUse"
       gradientTransform="matrix(1.1057692,0,0,1.1057692,-4.108434,-1.2233551)" />
    <linearGradient
       id="linearGradient3165">
      <stop
         id="stop3167"
         style="stop-color:#1e1e1e;stop-opacity:1"
         offset="0" />
      <stop
         id="stop3173"
         style="stop-color:#8d8d8d;stop-opacity:1"
         offset="0.26635548" />
      <stop
         id="stop3169"
         style="stop-color:#eeeeee;stop-opacity:1"
         offset="1" />
    </linearGradient>
    <linearGradient
       x1="26.545988"
       y1="25.604839"
       x2="28.415308"
       y2="23.37669"
       id="linearGradient4339"
       xlink:href="#linearGradient3165"
       gradientUnits="userSpaceOnUse"
       gradientTransform="matrix(0.6435676,0,0,0.6283907,-3.1523472,-6.073306)" />
    <linearGradient
       id="linearGradient3179">
      <stop
         id="stop3181"
         style="stop-color:#ffffff;stop-opacity:1"
         offset="0" />
      <stop
         id="stop3183"
         style="stop-color:#ffffff;stop-opacity:0"
         offset="1" />
    </linearGradient>
    <linearGradient
       x1="27.500908"
       y1="24.468029"
       x2="31.416487"
       y2="28.492336"
       id="linearGradient4336"
       xlink:href="#linearGradient3179"
       gradientUnits="userSpaceOnUse"
       gradientTransform="matrix(0.6406125,0,0,0.6305674,-3.1378723,-6.177481)"
       spreadMethod="reflect" />
    <radialGradient
       cx="11.305895"
       cy="8.3027325"
       r="8.7034845"
       fx="11.305895"
       fy="8.3027325"
       id="radialGradient3628"
       xlink:href="#linearGradient3622"
       gradientUnits="userSpaceOnUse"
       gradientTransform="matrix(-0.76617606,1.7163962,-0.70099223,-0.31291346,25.788352,-8.2938596)" />
  </defs>
  <g
     id="layer1">
    <path
       d="M 11.522924,7.0992855 1.2790753e-7,20.648583 C 0.58840471,23.856367 3.9226975,24 3.9226975,24 L 17.40697,12.078532 11.522924,7.0992855 z"
       id="path3320"
       style="fill:url(#radialGradient3628);fill-opacity:1;fill-rule:evenodd;stroke:none" />
    <path
       d="M 13.429497,9.8643954 C 2.1011752,22.461535 1.6059059,22.7157 1.6059059,22.7157 c 0,0 -1.12975801,-1.020127 -1.17879171,-1.738287 L 11.606802,7.8590105 c 0,0 0.844845,1.1232289 1.822695,2.0053849 z"
       id="path3322"
       style="opacity:0.23999999;fill:url(#linearGradient4429);fill-opacity:1;fill-rule:evenodd;stroke:none" />
    <path
       d="m 43.951807,17.831326 a 10.024096,10.024096 0 1 1 -20.048191,0 10.024096,10.024096 0 1 1 20.048191,0 z"
       transform="matrix(0.5866613,0.01064934,-0.01056719,0.5728263,-1.5973672,-4.8298683)"
       id="path2383"
       style="fill:url(#radialGradient4432);fill-opacity:1;stroke:none" />
    <path
       d="m 31.314285,21.714285 a 0.91428572,0.91428572 0 1 1 -1.828571,0 0.91428572,0.91428572 0 1 1 1.828571,0 z"
       transform="matrix(6.3170161,0.1146694,-0.1155974,6.2663024,-171.55458,-133.82406)"
       id="path3681"
       style="opacity:0.19069764;fill:url(#radialGradient4596);fill-opacity:1;stroke:none" />
    <path
       d="m 14.355675,1.2037068 c 0,0 2.328204,3.0817986 8.681586,7.7241923 0.259595,0.1896846 -0.491756,0.9824023 -0.749352,0.7596262 0,0 -3.933782,-1.8824812 -8.741188,-7.5595814 -0.238167,-0.2812526 0.178803,-0.4938302 0.808954,-0.9242371 z"
       id="path3163"
       style="fill:url(#linearGradient4609);fill-opacity:1;fill-rule:evenodd;stroke:none" />
    <path
       d="m 14.355675,1.2037068 c 0,0 2.328204,3.0817986 8.681586,7.7241923 0.259595,0.1896846 -0.491756,0.9824023 -0.749352,0.7596262 0,0 -3.933782,-1.8824812 -8.741188,-7.5595814 -0.238167,-0.2812526 0.178803,-0.4938302 0.808954,-0.9242371 z"
       id="path3177"
       style="opacity:0.67441861;fill:url(#linearGradient4606);fill-opacity:1;fill-rule:evenodd;stroke:none" />
    <path
       d="m 43.951807,17.831326 a 10.024096,10.024096 0 1 1 -20.048191,0 10.024096,10.024096 0 1 1 20.048191,0 z"
       transform="matrix(0.5866613,0.01064934,-0.01056719,0.5728263,-1.5973672,-4.8298683)"
       id="path2677"
       style="opacity:0.47906979;fill:url(#radialGradient4602);fill-opacity:1;stroke:none" />
    <path
       d="m 17.186528,12.202477 c 0.468232,-0.05715 1.580286,-0.714362 1.580286,-0.714362 -1.609551,-0.800084 -6.496734,-5.6005885 -6.496734,-5.6005885 0,0 -0.848672,1.0858295 -0.760878,1.4001475 0,0 2.809398,3.257485 5.677326,4.914803 z"
       id="path3302"
       style="fill:url(#linearGradient4339);fill-opacity:1;fill-rule:evenodd;stroke:none" />
    <path
       d="m 17.107611,12.16161 c 0.466082,-0.05735 1.57303,-0.716836 1.57303,-0.716836 -1.602161,-0.802856 -6.466903,-5.61999 -6.466903,-5.61999 0,0 -0.844775,1.089591 -0.757384,1.404998 0,0 2.796498,3.268769 5.651257,4.931828 z"
       id="path3316"
       style="opacity:0.52558139;fill:url(#linearGradient4336);fill-opacity:1;fill-rule:evenodd;stroke:none" />
  </g>
</svg>

<?xml version="1.0" encoding="UTF-8" standalone="no"?>
<!-- Created with Inkscape (http://www.inkscape.org/) -->
<svg
   xmlns:dc="http://purl.org/dc/elements/1.1/"
   xmlns:cc="http://creativecommons.org/ns#"
   xmlns:rdf="http://www.w3.org/1999/02/22-rdf-syntax-ns#"
   xmlns:svg="http://www.w3.org/2000/svg"
   xmlns="http://www.w3.org/2000/svg"
   xmlns:xlink="http://www.w3.org/1999/xlink"
   xmlns:sodipodi="http://sodipodi.sourceforge.net/DTD/sodipodi-0.dtd"
   xmlns:inkscape="http://www.inkscape.org/namespaces/inkscape"
   width="24"
   height="24"
   id="svg2"
   sodipodi:version="0.32"
   inkscape:version="0.46"
   version="1.0"
   sodipodi:docname="audio-input-microphone.svg"
   inkscape:output_extension="org.inkscape.output.svg.inkscape">
  <defs
     id="defs4">
    <linearGradient
       inkscape:collect="always"
       id="linearGradient3324">
      <stop
         style="stop-color:#ffffff;stop-opacity:1;"
         offset="0"
         id="stop3326" />
      <stop
         style="stop-color:#ffffff;stop-opacity:0;"
         offset="1"
         id="stop3328" />
    </linearGradient>
    <linearGradient
       inkscape:collect="always"
       xlink:href="#linearGradient3324"
       id="linearGradient4429"
       gradientUnits="userSpaceOnUse"
       gradientTransform="matrix(0.6435676,0,0,0.6283907,-4.4762576,-2.0994837)"
       x1="17.676191"
       y1="28.647619"
       x2="15.542857"
       y2="26.971428" />
    <linearGradient
       id="linearGradient3155">
      <stop
         style="stop-color:#ffffff;stop-opacity:1;"
         offset="0"
         id="stop3157" />
      <stop
         style="stop-color:#9b9b9b;stop-opacity:1;"
         offset="1"
         id="stop3159" />
    </linearGradient>
    <radialGradient
       inkscape:collect="always"
       xlink:href="#linearGradient3155"
       id="radialGradient4432"
       gradientUnits="userSpaceOnUse"
       gradientTransform="matrix(1.1057692,0,0,1.1057692,-4.108434,-1.2233551)"
       cx="37.97171"
       cy="11.217601"
       fx="37.97171"
       fy="11.217601"
       r="10.024096" />
    <linearGradient
       id="linearGradient3685">
      <stop
         id="stop3687"
         offset="0"
         style="stop-color:#ffffff;stop-opacity:0;" />
      <stop
         style="stop-color:#000000;stop-opacity:0.49803922;"
         offset="0.77083331"
         id="stop3689" />
      <stop
         id="stop3691"
         offset="1"
         style="stop-color:#000000;stop-opacity:1;" />
    </linearGradient>
    <radialGradient
       inkscape:collect="always"
       xlink:href="#linearGradient3685"
       id="radialGradient4596"
       gradientUnits="userSpaceOnUse"
       gradientTransform="matrix(1.705571,0,0,1.705571,-21.787591,-14.599733)"
       cx="31.00248"
       cy="20.938292"
       fx="31.00248"
       fy="20.938292"
       r="0.91428572" />
    <linearGradient
       inkscape:collect="always"
       xlink:href="#linearGradient3165"
       id="linearGradient4609"
       gradientUnits="userSpaceOnUse"
       gradientTransform="matrix(0.5866613,1.0649345e-2,-1.0567193e-2,0.5728263,-1.5973672,-4.8298683)"
       x1="32.302921"
       y1="18.646013"
       x2="34.589996"
       y2="16.08078" />
    <linearGradient
       inkscape:collect="always"
       xlink:href="#linearGradient3179"
       id="linearGradient4606"
       gradientUnits="userSpaceOnUse"
       gradientTransform="matrix(0.5866613,1.0649345e-2,-1.0567193e-2,0.5728263,-1.5973672,-4.8298683)"
       spreadMethod="reflect"
       x1="34.204147"
       y1="17.333593"
       x2="39.000122"
       y2="23.11928" />
    <linearGradient
       id="linearGradient3449">
      <stop
         id="stop3451"
         offset="0"
         style="stop-color:#ffffff;stop-opacity:1;" />
      <stop
         id="stop3453"
         offset="1"
         style="stop-color:#9b9b9b;stop-opacity:0;" />
    </linearGradient>
    <radialGradient
       inkscape:collect="always"
       xlink:href="#linearGradient3449"
       id="radialGradient4602"
       gradientUnits="userSpaceOnUse"
       gradientTransform="matrix(1.1057692,0,0,1.1057692,-4.108434,-1.2233551)"
       cx="37.97171"
       cy="11.217601"
       fx="37.97171"
       fy="11.217601"
       r="10.024096" />
    <linearGradient
       id="linearGradient3165">
      <stop
         style="stop-color:#1e1e1e;stop-opacity:1;"
         offset="0"
         id="stop3167" />
      <stop
         id="stop3173"
         offset="0.26635548"
         style="stop-color:#8d8d8d;stop-opacity:1;" />
      <stop
         style="stop-color:#eeeeee;stop-opacity:1;"
         offset="1"
         id="stop3169" />
    </linearGradient>
    <linearGradient
       inkscape:collect="always"
       xlink:href="#linearGradient3165"
       id="linearGradient4339"
       gradientUnits="userSpaceOnUse"
       gradientTransform="matrix(0.6435676,0,0,0.6283907,-3.1523472,-6.073306)"
       x1="26.545988"
       y1="25.604839"
       x2="28.415308"
       y2="23.37669" />
    <linearGradient
       id="linearGradient3179">
      <stop
         style="stop-color:#ffffff;stop-opacity:1;"
         offset="0"
         id="stop3181" />
      <stop
         style="stop-color:#ffffff;stop-opacity:0;"
         offset="1"
         id="stop3183" />
    </linearGradient>
    <linearGradient
       inkscape:collect="always"
       xlink:href="#linearGradient3179"
       id="linearGradient4336"
       gradientUnits="userSpaceOnUse"
       gradientTransform="matrix(0.6406125,0,0,0.6305674,-3.1378723,-6.177481)"
       spreadMethod="reflect"
       x1="27.500908"
       y1="24.468029"
       x2="31.416487"
       y2="28.492336" />
  </defs>
  <sodipodi:namedview
     id="base"
     pagecolor="#ffffff"
     bordercolor="#666666"
     borderopacity="1.0"
     gridtolerance="10000"
     guidetolerance="10"
     objecttolerance="10"
     inkscape:pageopacity="0.0"
     inkscape:pageshadow="2"
     inkscape:zoom="10.375"
     inkscape:cx="12"
     inkscape:cy="12"
     inkscape:document-units="px"
     inkscape:current-layer="layer1"
     showgrid="false"
     inkscape:window-width="640"
     inkscape:window-height="720"
     inkscape:window-x="798"
     inkscape:window-y="24" />
  <metadata
     id="metadata7">
    <rdf:RDF>
      <cc:Work
         rdf:about="">
        <dc:format>image/svg+xml</dc:format>
        <dc:type
           rdf:resource="http://purl.org/dc/dcmitype/StillImage" />
      </cc:Work>
    </rdf:RDF>
  </metadata>
  <g
     inkscape:label="Layer 1"
     inkscape:groupmode="layer"
     id="layer1">
    <path
       style="fill:#000000;fill-opacity:1;fill-rule:evenodd;stroke:none;stroke-width:1px;stroke-linecap:butt;stroke-linejoin:miter;stroke-opacity:1"
       d="M 11.522924,7.0992855 L 1.2790753e-07,20.648583 C 0.58840471,23.856367 3.9226975,24 3.9226975,24 L 17.40697,12.078532 L 11.522924,7.0992855 z"
       id="path3320"
       sodipodi:nodetypes="ccccc" />
    <path
       style="opacity:0.43720931000000002;fill:url(#linearGradient4429);fill-opacity:1;fill-rule:evenodd;stroke:none;stroke-width:1px;stroke-linecap:butt;stroke-linejoin:miter;stroke-opacity:1"
       d="M 12.888144,9.323042 C 1.5598218,21.920182 1.0645525,22.174347 1.0645525,22.174347 C 1.0645525,22.174347 0.47614789,21.695573 0.42711419,20.977413 L 11.606802,7.8590105 C 11.606802,7.8590105 11.910294,8.440886 12.888144,9.323042 z"
       id="path3322"
       sodipodi:nodetypes="ccccc" />
    <path
       sodipodi:type="arc"
       style="fill:url(#radialGradient4432);fill-opacity:1;stroke:none;stroke-width:1;stroke-linecap:butt;stroke-miterlimit:4;stroke-dasharray:12, 12;stroke-dashoffset:0;stroke-opacity:1"
       id="path2383"
       sodipodi:cx="33.927711"
       sodipodi:cy="17.831326"
       sodipodi:rx="10.024096"
       sodipodi:ry="10.024096"
       d="M 43.951807,17.831326 A 10.024096,10.024096 0 1 1 23.903616,17.831326 A 10.024096,10.024096 0 1 1 43.951807,17.831326 z"
       transform="matrix(0.5866613,1.0649345e-2,-1.0567193e-2,0.5728263,-1.5973672,-4.8298683)" />
    <path
       sodipodi:type="arc"
       style="opacity:0.19069764000000000;fill:url(#radialGradient4596);fill-opacity:1;stroke:none;stroke-width:1;stroke-linecap:butt;stroke-miterlimit:4;stroke-dasharray:12, 12;stroke-dashoffset:0;stroke-opacity:1"
       id="path3681"
       sodipodi:cx="30.4"
       sodipodi:cy="21.714285"
       sodipodi:rx="0.91428572"
       sodipodi:ry="0.91428572"
       d="M 31.314285,21.714285 A 0.91428572,0.91428572 0 1 1 29.485714,21.714285 A 0.91428572,0.91428572 0 1 1 31.314285,21.714285 z"
       transform="matrix(6.3170161,0.1146694,-0.1155974,6.2663024,-171.55458,-133.82406)" />
    <path
       style="fill:url(#linearGradient4609);fill-opacity:1;fill-rule:evenodd;stroke:none;stroke-width:1px;stroke-linecap:butt;stroke-linejoin:miter;stroke-opacity:1"
       d="M 14.355675,1.2037068 C 14.355675,1.2037068 16.683879,4.2855054 23.037261,8.9278991 C 23.296856,9.1175837 22.545505,9.9103014 22.287909,9.6875253 C 22.287909,9.6875253 18.354127,7.8050441 13.546721,2.1279439 C 13.308554,1.8466913 13.725524,1.6341137 14.355675,1.2037068 z"
       id="path3163"
       sodipodi:nodetypes="cssss" />
    <path
       style="opacity:0.67441861000000003;fill:url(#linearGradient4606);fill-opacity:1;fill-rule:evenodd;stroke:none;stroke-width:1px;stroke-linecap:butt;stroke-linejoin:miter;stroke-opacity:1"
       d="M 14.355675,1.2037068 C 14.355675,1.2037068 16.683879,4.2855054 23.037261,8.9278991 C 23.296856,9.1175837 22.545505,9.9103014 22.287909,9.6875253 C 22.287909,9.6875253 18.354127,7.8050441 13.546721,2.1279439 C 13.308554,1.8466913 13.725524,1.6341137 14.355675,1.2037068 z"
       id="path3177"
       sodipodi:nodetypes="cssss" />
    <path
       sodipodi:type="arc"
       style="opacity:0.47906979000000000;fill:url(#radialGradient4602);fill-opacity:1;stroke:none;stroke-width:1;stroke-linecap:butt;stroke-miterlimit:4;stroke-dasharray:12, 12;stroke-dashoffset:0;stroke-opacity:1"
       id="path2677"
       sodipodi:cx="33.927711"
       sodipodi:cy="17.831326"
       sodipodi:rx="10.024096"
       sodipodi:ry="10.024096"
       d="M 43.951807,17.831326 A 10.024096,10.024096 0 1 1 23.903616,17.831326 A 10.024096,10.024096 0 1 1 43.951807,17.831326 z"
       transform="matrix(0.5866613,1.0649345e-2,-1.0567193e-2,0.5728263,-1.5973672,-4.8298683)" />
    <path
       style="fill:url(#linearGradient4339);fill-opacity:1;fill-rule:evenodd;stroke:none;stroke-width:1px;stroke-linecap:butt;stroke-linejoin:miter;stroke-opacity:1"
       d="M 17.186528,12.202477 C 17.65476,12.145328 18.766814,11.488115 18.766814,11.488115 C 17.157263,10.688031 12.27008,5.8875265 12.27008,5.8875265 C 12.27008,5.8875265 11.421408,6.973356 11.509202,7.287674 C 11.509202,7.287674 14.3186,10.545159 17.186528,12.202477 z"
       id="path3302" />
    <path
       style="opacity:0.52558139000000004;fill:url(#linearGradient4336);fill-opacity:1;fill-rule:evenodd;stroke:none;stroke-width:1px;stroke-linecap:butt;stroke-linejoin:miter;stroke-opacity:1"
       d="M 17.107611,12.16161 C 17.573693,12.104263 18.680641,11.444774 18.680641,11.444774 C 17.07848,10.641918 12.213738,5.824784 12.213738,5.824784 C 12.213738,5.824784 11.368963,6.914375 11.456354,7.229782 C 11.456354,7.229782 14.252852,10.498551 17.107611,12.16161 z"
       id="path3316" />
  </g>
</svg>
